X:74
T: Mikor kicsiny lányka voltam
O: Geoseni (Bákó), 1929
Q: 1/4=144
M:2/4
L:1/8
K:C
A<AA<A | BA^GF | 
GGGG | AAGF | 
AAGF | A2 z2 | 
BA^GF | D2 z2 | 

